apps/frontend/public/assets/svg/logo-light.svg

<svg width="124" height="48" viewBox="0 0 124 48" fill="none" xmlns="http://www.w3.org/2000/svg">
<g clip-path="url(#clip0_1250_5680)">
<path d="M4.89822 15.6951C6.13467 12.9839 9.60578 11.8428 11.9381 11.8428C17.5986 11.8428 20.9268 15.5521 20.9268 21.8773V32.293C20.9268 33.6248 19.8333 34.7659 18.4063 34.7659C17.0745 34.7659 16.0287 33.6248 16.0287 32.293V22.1632C16.0287 18.6921 13.8416 16.6456 11.0829 16.6456C8.32407 16.6456 4.9006 18.2156 4.9006 22.5896V32.293C4.9006 33.6248 3.80709 34.7659 2.38005 34.7659C1.04831 34.7659 0.00244529 33.6248 0.00244529 32.293V2.4729C6.29211e-05 1.14116 1.09357 0 2.52061 0C3.85236 0 4.89822 1.14116 4.89822 2.4729V15.6951ZM81.7058 0.238237C83.5141 0.238237 84.9411 1.56998 84.9411 3.33055C84.9411 5.09113 83.5141 6.42287 81.7058 6.42287C79.8976 6.42287 78.4253 5.09113 78.4253 3.33055C78.4253 1.56998 79.9477 0.238237 81.7058 0.238237ZM84.1787 14.5539C84.1787 13.2222 83.0852 12.081 81.6582 12.081C80.3265 12.081 79.2806 13.2222 79.2806 14.5539V32.293C79.2806 33.6248 80.3265 34.7659 81.6582 34.7659C83.0852 34.7659 84.1787 33.6248 84.1787 32.293V14.5539ZM93.1674 0.238237C94.9756 0.238237 96.4027 1.56998 96.4027 3.33055C96.4027 5.09113 94.9756 6.42287 93.1674 6.42287C91.3592 6.42287 89.8869 5.09113 89.8869 3.33055C89.8869 1.56998 91.4092 0.238237 93.1674 0.238237ZM95.6403 14.5539C95.6403 13.2222 94.5468 12.081 93.1198 12.081C91.788 12.081 90.7422 13.2222 90.7422 14.5539V32.293C90.7422 33.6248 91.788 34.7659 93.1198 34.7659C94.5468 34.7659 95.6403 33.6248 95.6403 32.293V14.5539ZM121.275 25.1602H105.818C106.294 28.5837 109.051 30.7254 112.619 30.7254C114.949 30.7254 116.281 29.9178 117.899 28.5861C118.706 27.9214 120.038 27.5879 121.039 28.3955C121.942 29.1078 121.989 30.5825 121.134 31.4878C118.899 33.8177 115.664 35.0066 112.384 35.0066C106.058 35.0066 100.97 30.3943 100.97 23.3544C100.97 16.3145 106.058 11.8451 112.384 11.8451C118.709 11.8451 123.323 16.1263 123.512 22.9279C123.512 24.212 122.466 25.1626 121.277 25.1626L121.275 25.1602ZM118.706 21.5938C118.23 18.1227 115.709 16.1239 112.381 16.1239C109.053 16.1239 106.294 18.168 105.818 21.5938H118.706ZM71.7213 17.5581H73.713V12.4789H63.4736C62.9518 12.4074 62.4158 12.3717 61.8774 12.3717C55.2877 12.3717 49.9298 17.7344 49.9298 24.3216C49.9298 30.9089 55.2901 36.2692 61.8774 36.2692C68.4646 36.2692 73.825 30.9089 73.825 24.3216C73.825 21.8106 73.0483 19.483 71.7213 17.5581ZM61.8774 32.2311C57.5153 32.2311 53.9679 28.6814 53.9679 24.3216C53.9679 19.9619 57.5176 16.4098 61.8774 16.4098C62.006 16.4098 62.1323 16.4098 62.2585 16.4217C63.6165 16.4836 64.8863 16.8934 65.9798 17.5581C68.2621 18.9494 69.7868 21.4604 69.7868 24.3216C69.7868 28.6837 66.2371 32.2311 61.8774 32.2311ZM44.4932 12.4122C43.2139 11.9404 41.7964 12.5956 41.3247 13.8725C41.3032 13.9297 39.5307 18.7183 36.0477 27.0328L30.0203 13.7105C29.4581 12.4693 27.9977 11.919 26.7541 12.4789C25.5129 13.0411 24.9602 14.5039 25.5224 15.7451L33.42 33.2055C29.0269 43.3639 19.1686 41.2388 18.7374 41.1388C17.4152 40.8291 16.0906 41.6438 15.7737 42.9661C15.4569 44.2907 16.274 45.6224 17.5986 45.9416C17.6939 45.9631 19.1805 46.3109 21.3532 46.3109C22.554 46.3109 23.9643 46.2037 25.4652 45.8797C29.42 45.022 34.7994 42.4658 37.956 35.1566C43.2306 22.947 45.9274 15.6546 45.9536 15.5831C46.4253 14.3038 45.7702 12.8862 44.4932 12.4145V12.4122Z" fill="white"/>
<path d="M73.7152 36.0501C73.7152 42.6397 68.3549 48 61.7676 48C57.2197 48 52.9981 45.3532 51.0112 41.2579C50.5252 40.2549 50.9445 39.0471 51.9475 38.5611C52.9505 38.0751 54.1583 38.4944 54.6467 39.4974C55.9809 42.249 58.7111 43.9619 61.77 43.9619C66.1321 43.9619 69.6795 40.4122 69.6795 36.0501C69.6795 35.221 69.5508 34.4205 69.315 33.6701C68.8933 32.3407 68.1309 31.1591 67.128 30.2371C65.72 28.9339 63.8355 28.1406 61.77 28.1406C59.8189 28.1406 57.9606 28.8529 56.5217 30.1323C55.5187 29.2079 54.7563 28.0286 54.3394 26.6945C56.4359 25.0245 59.0446 24.1001 61.7724 24.1001C64.6598 24.1001 67.3114 25.1293 69.3793 26.8446C70.5324 27.7975 71.5068 28.9649 72.2358 30.2847C73.1816 31.9953 73.72 33.9583 73.72 36.0501H73.7152Z" fill="white"/>
</g>
<defs>
<clipPath id="clip0_1250_5680">
<rect width="123.512" height="48" fill="white"/>
</clipPath>
</defs>
</svg>

<svg width="124" height="48" viewBox="0 0 124 48" fill="none" xmlns="http://www.w3.org/2000/svg"><g clip-path="url(#a)" fill="#fff"><path d="M4.898 15.695c1.237-2.711 4.708-3.852 7.04-3.852 5.66 0 8.989 3.71 8.989 10.034v10.416c0 1.332-1.094 2.473-2.52 2.473-1.332 0-2.378-1.141-2.378-2.473v-10.13c0-3.47-2.187-5.517-4.946-5.517S4.9 18.216 4.9 22.59v9.703c0 1.332-1.094 2.473-2.52 2.473-1.333 0-2.379-1.141-2.379-2.473V2.473C0 1.14 1.094 0 2.521 0c1.331 0 2.377 1.141 2.377 2.473v13.222ZM81.706.238c1.808 0 3.235 1.332 3.235 3.093 0 1.76-1.427 3.092-3.235 3.092-1.808 0-3.28-1.332-3.28-3.092 0-1.761 1.522-3.093 3.28-3.093Zm2.473 14.316c0-1.332-1.094-2.473-2.52-2.473-1.333 0-2.378 1.141-2.378 2.473v17.739c0 1.332 1.045 2.473 2.377 2.473 1.427 0 2.52-1.141 2.52-2.473v-17.74ZM93.167.238c1.809 0 3.236 1.332 3.236 3.093 0 1.76-1.427 3.092-3.236 3.092-1.808 0-3.28-1.332-3.28-3.092 0-1.761 1.522-3.093 3.28-3.093Zm2.473 14.316c0-1.332-1.093-2.473-2.52-2.473-1.332 0-2.378 1.141-2.378 2.473v17.739c0 1.332 1.046 2.473 2.378 2.473 1.427 0 2.52-1.141 2.52-2.473v-17.74Zm25.635 10.606h-15.457c.476 3.424 3.233 5.565 6.801 5.565 2.33 0 3.662-.807 5.28-2.139.807-.665 2.139-.998 3.14-.19.903.712.95 2.186.095 3.092-2.235 2.33-5.47 3.519-8.75 3.519-6.326 0-11.414-4.613-11.414-11.653s5.088-11.509 11.414-11.509c6.325 0 10.939 4.281 11.128 11.083a2.232 2.232 0 0 1-2.235 2.235l-.002-.003Zm-2.569-3.566c-.476-3.471-2.997-5.47-6.325-5.47-3.328 0-6.087 2.044-6.563 5.47h12.888Zm-46.985-4.036h1.992v-5.08h-10.24a11.788 11.788 0 0 0-1.596-.106c-6.59 0-11.947 5.362-11.947 11.95 0 6.587 5.36 11.947 11.947 11.947 6.588 0 11.948-5.36 11.948-11.947a11.87 11.87 0 0 0-2.104-6.764Zm-9.844 14.673c-4.362 0-7.91-3.55-7.91-7.91s3.55-7.911 7.91-7.911c.129 0 .255 0 .381.012a7.84 7.84 0 0 1 3.722 1.136 7.916 7.916 0 0 1 3.807 6.764c0 4.362-3.55 7.91-7.91 7.91ZM44.493 12.412a2.468 2.468 0 0 0-3.168 1.46c-.022.058-1.794 4.846-5.277 13.16L30.02 13.71a2.47 2.47 0 0 0-4.498 2.035l7.898 17.46c-4.393 10.159-14.251 8.034-14.683 7.934a2.468 2.468 0 0 0-1.138 4.803c.095.021 1.581.369 3.754.369 1.201 0 2.611-.107 4.112-.431 3.955-.858 9.334-3.414 12.491-10.723 5.275-12.21 7.971-19.502 7.998-19.574a2.468 2.468 0 0 0-1.46-3.168v-.003Z"/><path d="M73.715 36.05c0 6.59-5.36 11.95-11.947 11.95-4.548 0-8.77-2.647-10.757-6.742a2.019 2.019 0 1 1 3.636-1.76 7.863 7.863 0 0 0 7.123 4.464c4.362 0 7.91-3.55 7.91-7.912 0-.829-.13-1.63-.365-2.38a7.921 7.921 0 0 0-2.187-3.433 7.864 7.864 0 0 0-5.358-2.096 7.88 7.88 0 0 0-5.248 1.991 7.87 7.87 0 0 1-2.183-3.438 11.91 11.91 0 0 1 7.433-2.594c2.888 0 5.54 1.03 7.607 2.745a11.992 11.992 0 0 1 2.857 3.44 11.872 11.872 0 0 1 1.484 5.765h-.005Z"/></g><defs><clipPath id="a"><path fill="#fff" d="M0 0h123.512v48H0z"/></clipPath></defs></svg>
